icons/folder-sass-open.svg

<svg clip-rule="evenodd" stroke-linejoin="round" stroke-miterlimit="1.4142" version="1.1" viewBox="0 0 24 24" xml:space="preserve" xmlns="http://www.w3.org/2000/svg"><path d="m19 20h-15c-1.11 0-2-.9-2-2v-12c0-1.11.89-2 2-2h6l2 2h7c1.097 0 2 .903 2 2h-17v10l2.14-8h17.07l-2.28 8.5c-.23.87-1.01 1.5-1.93 1.5z" fill="#455A64" style="fill:#f06292"/><g transform="matrix(.040368 0 0 .040368 5.3436 -1.2032)" style="fill:#fce4ec;stroke-miterlimit:4;stroke-width:12.423;stroke:#fce4ec"><path d="m434.3 278.93c-9.3-36.49-69.8-48.48-127.06-28.14-34.08 12.11-70.96 31.11-97.49 55.92-31.54 29.5-36.57 55.17-34.49 65.9 7.31 37.85 59.18 62.6 80.5 80.95v.11c-6.29 3.09-52.3 26.38-63.07 50.19-11.36 25.12 1.81 43.14 10.53 45.57 27.02 7.52 54.74-6 69.65-28.23 14.38-21.45 13.18-49.14 6.93-62.92 8.62-2.27 18.67-3.29 31.44-1.8 36.04 4.21 43.11 26.71 41.76 36.13s-8.91 14.6-11.44 16.16-3.3 2.11-3.09 3.27c.31 1.69 1.48 1.63 3.63 1.26 2.97-.5 18.92-7.66 19.61-25.04.87-22.07-20.28-46.76-57.73-46.11-15.42.27-25.12 1.73-32.13 4.34-.52-.59-1.04-1.18-1.59-1.76-23.15-24.7-65.95-42.17-64.14-75.38.66-12.07 4.86-43.86 82.24-82.42 63.39-31.59 114.14-22.89 122.91-3.63 12.53 27.52-27.12 78.67-92.95 86.05-25.08 2.81-38.29-6.91-41.57-10.53-3.46-3.81-3.97-3.98-5.27-3.27-2.1 1.17-.77 4.53 0 6.54 1.97 5.12 10.03 14.19 23.78 18.7 12.1 3.97 41.54 6.15 77.16-7.62 39.88-15.45 71.03-58.37 61.88-94.24zm-169.69 185.94c2.99 11.06 2.66 21.37-.43 30.7-.34 1.04-.72 2.06-1.13 3.08-.41 1.01-.85 2.01-1.33 3-2.38 4.94-5.58 9.56-9.49 13.83-11.94 13.02-28.61 17.95-35.76 13.8-7.72-4.48-3.85-22.84 9.98-37.46 14.89-15.74 36.31-25.86 36.31-25.86l-.03-.06c.62-.34 1.24-.68 1.88-1.03z" style="fill:#fce4ec;stroke-miterlimit:4;stroke-width:12.423;stroke:#fce4ec"/></g></svg>

<?xml version="1.0" encoding="UTF-8" standalone="no"?>
<!DOCTYPE svg PUBLIC "-//W3C//DTD SVG 1.1//EN" "http://www.w3.org/Graphics/SVG/1.1/DTD/svg11.dtd">
<svg width="100%" height="100%" viewBox="0 0 24 24" version="1.1" xmlns="http://www.w3.org/2000/svg" xmlns:xlink="http://www.w3.org/1999/xlink" xml:space="preserve" style="fill-rule:evenodd;clip-rule:evenodd;">
    <path id="path2" d="M19,20L4,20C2.89,20 2,19.1 2,18L2,6C2,4.89 2.89,4 4,4L10,4L12,6L19,6C20.097,6 21,6.903 21,8L4,8L4,18L6.14,10L23.21,10L20.93,18.5C20.7,19.37 19.92,20 19,20Z" style="fill:rgb(248,187,208);fill-rule:nonzero;"/>
    <g id="path4" transform="matrix(0.041856,0,0,0.041856,5.18143,-1.16903)">
        <path d="M434.3,278.93C425,242.44 364.5,230.45 307.24,250.79C273.16,262.9 236.28,281.9 209.75,306.71C178.21,336.21 173.18,361.88 175.26,372.61C182.57,410.46 234.44,435.21 255.76,453.56L255.76,453.67C249.47,456.76 203.46,480.05 192.69,503.86C181.33,528.98 194.5,547 203.22,549.43C230.24,556.95 257.96,543.43 272.87,521.2C287.25,499.75 286.05,472.06 279.8,458.28C288.42,456.01 298.47,454.99 311.24,456.48C347.28,460.69 354.35,483.19 353,492.61C351.65,502.03 344.09,507.21 341.56,508.77C339.03,510.33 338.26,510.88 338.47,512.04C338.78,513.73 339.95,513.67 342.1,513.3C345.07,512.8 361.02,505.64 361.71,488.26C362.58,466.19 341.43,441.5 303.98,442.15C288.56,442.42 278.86,443.88 271.85,446.49C271.33,445.9 270.81,445.31 270.26,444.73C247.11,420.03 204.31,402.56 206.12,369.35C206.78,357.28 210.98,325.49 288.36,286.93C351.75,255.34 402.5,264.04 411.27,283.3C423.8,310.82 384.15,361.97 318.32,369.35C293.24,372.16 280.03,362.44 276.75,358.82C273.29,355.01 272.78,354.84 271.48,355.55C269.38,356.72 270.71,360.08 271.48,362.09C273.45,367.21 281.51,376.28 295.26,380.79C307.36,384.76 336.8,386.94 372.42,373.17C412.3,357.72 443.45,314.8 434.3,278.93L434.3,278.93ZM264.61,464.87C267.6,475.93 267.27,486.24 264.18,495.57C263.84,496.61 263.46,497.63 263.05,498.65C262.64,499.66 262.2,500.66 261.72,501.65C259.34,506.59 256.14,511.21 252.23,515.48C240.29,528.5 223.62,533.43 216.47,529.28C208.75,524.8 212.62,506.44 226.45,491.82C241.34,476.08 262.76,465.96 262.76,465.96L262.73,465.9C263.35,465.56 263.97,465.22 264.61,464.87Z" style="fill:rgb(236,64,122);fill-rule:nonzero;stroke:rgb(236,64,122);stroke-width:12.42px;"/>
    </g>
</svg>
